X:1
T:Mount Battock
T:Mount Battock
T:Alexander Walker
C:Alexander Walker
L:1/8
M:4/4
K:D
V:1 treble 
V:1
 A, | D<DD>F E>DB,>E | D/D/D (D>F) A3 F | G>A B/A/G/F/ A>DF>D | B,>E (D/C/)B,/A,/ (D2 D) :| g | %6
 f<dA>d F>dE>d | G>e F>d e3 g | f<dA>d F>dE>F | B,>EC>A, (D2 D)g | f<dA>d F>d E>d | G>e F>d e3 g | %12
 f<ab>g f>afd | B>e (e/d/).B/.A/ d2 d || %14

